src/assets/logo.svg

<svg xmlns="http://www.w3.org/2000/svg" width="63" height="62" viewBox="0 0 63 62" fill="none">
  <path fill-rule="evenodd" clip-rule="evenodd" d="M22.6113 0L9.41968 13.1916L13.3875 17.1595L13.3878 17.1592L31.5194 35.2908L35.4666 31.3437L35.4653 31.3424L53.5111 13.2966L49.4943 9.2799L49.494 9.28021L40.3478 0.134057L27.6547 12.8271L31.644 16.8164L40.3538 8.10659L45.5107 13.2635L31.4486 27.3257L17.3349 13.212L26.5791 3.96785L22.6113 0ZM58.3132 45.5126L48.9123 36.1118L62.7586 22.2655L58.7812 18.2881L44.9349 32.1343L44.9343 32.1337L40.9918 36.0763L54.2868 49.3712L49.5102 54.1478L35.4321 40.0698L35.4318 40.0701L31.5416 36.18L13.5995 54.122L8.62207 49.1446L17.8331 39.9335L17.8326 39.933L21.6842 36.0814L3.96785 18.3651L0 22.3329L13.7843 36.1173L0.721544 49.18L13.5421 62.0003L15.8685 59.6739L15.869 59.6743L31.5157 44.0276L49.448 61.9598L53.3851 58.0228L53.3848 58.0225L62.1034 49.3039L58.3126 45.5132L58.3132 45.5126Z" fill="white"/>
</svg>

<svg xmlns="http://www.w3.org/2000/svg" width="63" height="62" fill="none"><path fill-rule="evenodd" clip-rule="evenodd" d="M22.611 0 9.42 13.192l3.967 3.968L31.52 35.29l3.948-3.946-.002-.002 18.046-18.045-4.017-4.017L40.348.134 27.655 12.827l3.989 3.99 8.71-8.71 5.157 5.157-14.062 14.062-14.114-14.114 9.244-9.244L22.611 0Zm35.702 45.513-9.4-9.401 13.846-13.847-3.978-3.977-13.846 13.846-3.943 3.942 13.295 13.295-4.777 4.777L35.432 40.07l-3.89-3.89L13.6 54.122l-4.978-4.977 9.211-9.212 3.851-3.852L3.968 18.365 0 22.333l13.784 13.784L.722 49.18 13.542 62l2.326-2.326h.001l15.647-15.646L49.448 61.96l3.937-3.937 8.718-8.72-3.79-3.79Z" fill="#fff"/></svg>
